build/documents/ArchiveSolid.svg

<svg xmlns="http://www.w3.org/2000/svg" fill="none" viewBox="0 0 24 24" focusable="false"><path d="M0 0H24V24H0z"/><path fill="#74767B" fill-rule="evenodd" d="M3.93652 6.05554C3.93652 4.39869 5.27967 3.05554 6.93652 3.05554L13.5524 3.05554C14.2932 3.05554 15.0077 3.32956 15.5584 3.82485L19.006 6.92513C19.6387 7.49408 20 8.30494 20 9.15582L20 18C20 19.6569 18.6569 21 17 21L6.93652 21C5.27967 21 3.93652 19.6569 3.93652 18L3.93652 6.05554ZM7.89624 5.01625C7.89624 4.65727 8.18725 4.36625 8.54624 4.36625L9.46609 4.36625C9.82507 4.36625 10.1161 4.65727 10.1161 5.01625C10.1161 5.37524 9.82507 5.66625 9.46609 5.66625L8.54624 5.66625C8.18725 5.66625 7.89624 5.37524 7.89624 5.01625ZM8.54624 6.96626C8.18725 6.96626 7.89624 7.25727 7.89624 7.61626C7.89624 7.97524 8.18725 8.26626 8.54624 8.26626L9.46609 8.26626C9.82507 8.26626 10.1161 7.97524 10.1161 7.61626C10.1161 7.25727 9.82507 6.96626 9.46609 6.96626L8.54624 6.96626ZM7.89624 10.2163C7.89624 9.85727 8.18725 9.56625 8.54624 9.56625L9.46609 9.56625C9.82507 9.56625 10.1161 9.85727 10.1161 10.2163C10.1161 10.5752 9.82507 10.8663 9.46609 10.8663L8.54624 10.8663C8.18725 10.8663 7.89624 10.5752 7.89624 10.2163ZM9.44133 12.1663C9.1208 12.1663 8.84122 12.384 8.76267 12.6947L8.11651 15.2513C8.00474 15.6936 8.33903 16.1228 8.79517 16.1228L11.0695 16.1228C11.5256 16.1228 11.8599 15.6936 11.7481 15.2513L11.1019 12.6947C11.0234 12.384 10.7438 12.1663 10.4233 12.1663L9.44133 12.1663ZM9.74854 6.31625C9.74854 5.95727 10.0395 5.66625 10.3985 5.66625L11.3184 5.66625C11.6774 5.66625 11.9684 5.95727 11.9684 6.31625C11.9684 6.67524 11.6774 6.96625 11.3184 6.96625L10.3985 6.96625C10.0395 6.96625 9.74854 6.67524 9.74854 6.31625ZM10.3985 8.26625C10.0395 8.26625 9.74854 8.55727 9.74854 8.91625C9.74854 9.27524 10.0395 9.56625 10.3985 9.56625L11.3184 9.56625C11.6774 9.56625 11.9684 9.27524 11.9684 8.91625C11.9684 8.55727 11.6774 8.26625 11.3184 8.26625L10.3985 8.26625Z"/></svg>

<svg xmlns="http://www.w3.org/2000/svg" fill="none" viewBox="0 0 24 24" focusable="false"><path fill="#74767B" fill-rule="evenodd" d="M3.93 6.05c0-1.66 1.34-3 3-3h6.62c.74 0 1.45.27 2 .77L19 6.92c.63.57 1 1.38 1 2.23V18c0 1.65-1.35 3-3 3H6.93c-1.66 0-3-1.35-3-3zm3.96-1.04c0-.36.29-.65.65-.65h.92c.36 0 .65.29.65.65s-.29.65-.65.65h-.92c-.36 0-.65-.29-.65-.65m.65 1.95c-.36 0-.65.29-.65.65s.29.65.65.65h.92c.36 0 .65-.29.65-.65s-.29-.65-.65-.65zm-.65 3.25c0-.36.29-.65.65-.65h.92c.36 0 .65.29.65.65s-.29.65-.65.65h-.92c-.36 0-.65-.29-.65-.65m1.55 1.95c-.32 0-.6.22-.68.53l-.65 2.56a.7.7 0 0 0 .68.87h2.27a.7.7 0 0 0 .68-.87l-.64-2.56a.705.705 0 0 0-.68-.53zm.3-5.85c0-.36.29-.65.65-.65h.92c.36 0 .65.29.65.65s-.29.65-.65.65h-.92c-.36 0-.65-.29-.65-.65m.65 1.95c-.36 0-.65.29-.65.65s.29.65.65.65h.92c.36 0 .65-.29.65-.65s-.29-.65-.65-.65z"/></svg>
